X:2565
T:Cantar de Ronda (CT 290)
R:Ronda
C:Tradicional
S:Música Tradicional Asturiana, (C) Tello & Tito. Asturies, 2001.
S:http://pagina.de/MusTradAst <telloytito@asturies.org>
N:Canción de Ronda, transcrita en Murias, ayuntamiento de Quirós.
O:Murias (Quiros)
A:Asturies
Z:Cancioneru de Torner 290
M:9/8
L:1/8
Q:3/8=72
W:Desde la última vez
W:desde la última vez
W:que estuve en tu compañía
W:¡y anda!
W:que estuve en tu compaía,
W:mis ojos no descansaron
W:ni vieron más alegría
W:¡y anda!
K:G
BBc
|d3 e2 c (d>cB|c3-)c2 z BBc|d3 e2 c (dc)A|B2 G A>BA BAF|G3-G2 z BBc|
d3 e2 c (d>cB)|c3-c2 z BBc|d3 e2 c dcA|B2 G A>BA BGF|G3-G2 z||


